icons/torus.svg

<svg xmlns="http://www.w3.org/2000/svg" viewBox="0 0 256 129.8">
  <defs>
    <linearGradient id="a" x1="9.949" x2="129.866" y1="59.963" y2="59.963" gradientTransform="scale(1.8321 .54582)" gradientUnits="userSpaceOnUse">
      <stop offset="0%" stop-color="#A34CB4"/>
      <stop offset="9.192%" stop-color="#954DB2"/>
      <stop offset="71.69%" stop-color="#3C52A1"/>
      <stop offset="100%" stop-color="#19549B"/>
    </linearGradient>
    <linearGradient id="b" x1="-6.168" x2="132.176" y1="323.596" y2="-30.422" gradientTransform="scale(1.61214 .6203)" gradientUnits="userSpaceOnUse">
      <stop offset="0%" stop-color="#FF0264"/>
      <stop offset="49.43%" stop-color="#FE744A"/>
      <stop offset="81.9%" stop-color="#FDBC39"/>
      <stop offset="100%" stop-color="#FDDF31"/>
    </linearGradient>
  </defs>
  <path fill="url(#a)" d="M128 0C81.6 0 41 12.5 18.5 31.3c.1.5-.4 1.5-.2 2C20.9 45.7 32 57 48.8 65.4c.4.2 1.5-.4 2-.2 1.9-1.3 25.6-16.9 77.2-16.9 51.3 0 75.2 15.4 77.3 16.9.4-.2 1.4.2 1.8.1 17.1-8.5 28.4-19.8 30.8-32.2.1-.4-.5-1.2-.4-1.6C215 12.5 174.4 0 128 0" style="fill:url(#a)"/>
  <path fill="url(#b)" d="M237.5 31.3c-4.3 27.6-51.7 49.3-109.5 49.3S22.8 58.9 18.5 31.3C6.8 41.1 0 52.6 0 64.9c0 35.8 57.3 64.9 128 64.9s128-29.1 128-64.9c0-12.3-6.8-23.8-18.5-33.6" style="fill:url(#b)"/>
</svg>

<?xml version="1.0" encoding="UTF-8"?>
<svg width="256px" height="130px" viewBox="0 0 256 130" version="1.1" xmlns="http://www.w3.org/2000/svg" xmlns:xlink="http://www.w3.org/1999/xlink" preserveAspectRatio="xMidYMid">
    <defs>
        <linearGradient x1="-0.0116689288%" y1="50.0129952%" x2="100.00728%" y2="50.0129952%" id="linearGradient-1">
            <stop stop-color="#A34CB4" offset="0%"></stop>
            <stop stop-color="#954DB2" offset="9.192359%"></stop>
            <stop stop-color="#3C52A1" offset="71.69%"></stop>
            <stop stop-color="#19549B" offset="100%"></stop>
        </linearGradient>
        <linearGradient x1="-3.88442213%" y1="172.00528%" x2="83.2366552%" y2="-50.9344551%" id="linearGradient-2">
            <stop stop-color="#FF0264" offset="0%"></stop>
            <stop stop-color="#FE744A" offset="49.43%"></stop>
            <stop stop-color="#FDBC39" offset="81.9%"></stop>
            <stop stop-color="#FDDF31" offset="100%"></stop>
        </linearGradient>
    </defs>
	<g>
		<path d="M128,0 C81.6,0 41,12.5 18.5,31.3 C18.6,31.8 18.1,32.8 18.3,33.3 C20.9,45.7 32,57 48.8,65.4 C49.2,65.6 50.3,65 50.8,65.2 C52.7,63.9 76.4,48.3 128,48.3 C179.3,48.3 203.2,63.7 205.3,65.2 C205.7,65 206.7,65.4 207.1,65.3 C224.2,56.8 235.5,45.5 237.9,33.1 C238,32.7 237.4,31.9 237.5,31.5 C215,12.5 174.4,0 128,0" fill="url(#linearGradient-1)"></path>
		<path d="M237.5,31.3 C233.2,58.9 185.8,80.6 128,80.6 C70.2,80.6 22.8,58.9 18.5,31.3 C6.8,41.1 0,52.6 0,64.9 C0,100.7 57.3,129.8 128,129.8 C198.7,129.8 256,100.7 256,64.9 C256,52.6 249.2,41.1 237.5,31.3" fill="url(#linearGradient-2)"></path>
	</g>
</svg>
